X:1
T:Preludes in Progressive Keys
T:Preludes in Progressive Keys
T:From “Méthode complète pour Guitare”, Op. 59
T:Matteo Carcassi Ed.: G. C. Santisteban
T:by Mutopia-2017/12/30-2209
T:by Mutopia-2017/12/30-2209
T:by Mutopia-2017/12/30-2209
T:by Mutopia-2017/12/30-2209
T:by Mutopia-2017/12/30-2209
T:by Mutopia-2017/12/30-2209
T:by Mutopia-2017/12/30-2209
T:by Mutopia-2017/12/30-2209
T:by Mutopia-2017/12/30-2209
C:Matteo Carcassi Ed.: G. C. Santisteban
Z:by Mutopia-2017/12/30-2209
%%score ( 1 2 )
L:1/8
Q:1/4=90
M:4/4
K:C
V:1 treble nm="Classical Guitar" snm="Guit."
V:2 treble 
V:1
"^Prelude 1 in C Major""^I" !3!DG!1!ce !2!EGce | A,!2!Ace !3!CAce | DA!4!d!1!f !3!FAdf | %3
w: |||
 !3!G,GBf !2!B,G!4!df | !3!CG!1!ce A,G!3!^ce | D!2!A!4!d!1!f !3!FAdf | !3!G,G!1!ce G,GB!1!f | %7
w: ||||
 [Gce]4 z4 | %8
w: |
[M:4/4]"^Prelude 2 in A Minor"!f![Q:1/4=60]"^I" A,/!3!A/!1!c/A/ c/A/A,/A/ !4!F/A/c/A/ c/A/F/A/ | %9
w: |
 D/!3!A/B/A/ B/A/D/A/!>(! !2!E/^G/B/G/ B/G/E/!p!G/!>)! | %10
w: |
!<(! A,/!2!A/c/A/ e/A/c/A/!<)!!f! !3!G,/G/B/G/ !1!f/G/B/G/ | %11
w: |
 !4!C/G/!1!c/G/ e/G/c/G/ !2!B,/!>(!!1!^G/!4!d/G/ e/G/d/!p!G/!>)! | %12
w: * * * * * * * * * * * rit. * * * *|
!<(! A,/!3!A/!1!c/A/ !4!F/A/c/A/ D/A/B/A/ !2!E/!1!^G/B/G/!<)! | %13
w: |
!f! A,/A/c/A/ e/A/c/A/ E,/!1!^G/B/G/ e/G/B/G/ | A,/A/c/A/ e/A/c/A/ E,/^G/!4!d/G/ e/G/d/G/ | %15
w: |* * * dim. * * * * * * * rit. * * * *|
 A,/!2!E/!3!A/E/ !1!c/A/e/c/ A2 z2 | %16
w: |
[K:G][M:4/4]"^Prelude 3 in G Major""^I" !3!G,/B/!4!g/B/ G/B/g/B/ !2!E/B/g/B/ G/B/g/B/ | %17
w: |
 !3!C/!1!c/e/c/ G/c/e/c/ A,/c/e/c/ !2!A/c/e/c/ | D/c/!3!f/c/ !2!A/c/f/c/ ^D/B/f/B/ A/B/f/B/ | %19
w: ||
 !2!E/B/!4!g/B/ G/B/g/B/ !3!C/!1!c/g/c/ !2!A/c/g/c/ | %20
w: |
 D/B/g/B/ G/B/g/B/ D/!1!c/!3!f/c/ !2!A/c/f/c/ | !3!G,/B/!4!g/B/ !2!B,/B/g/B/ D/B/g/B/ B,/B/g/B/ | %22
w: ||
 G,4 z4 |[M:6/8]"^Prelude 4 in E Minor""^I" E,/G/B/!4!g/G/B/ E,/G/B/e/G/B/ | %24
w: ||
 E,/!2!A/!1!c/!3!f/A/c/ E,/A/c/e/A/c/ | E,/!3!F/!1!A/!4!^d/F/A/ E,/!1!A/B/!2!f/A/B/ | %26
w: ||
 E,/G/B/e/G/B/ !3!E/G/A/e/G/B/ | D/!1!^G/B/!2!=f/G/B/ D/G/B/e/G/B/ | %28
w: * * * * * * * * accel. * * *|* cresc. * * * * * * * * * *|
 !4!C/!3!A/!1!c/e/A/c/ A,/A/c/!4!f/A/c/ | !2!B,/G/B/e/G/B/ B,/!3!A/B/!4!f/A/B/ | %30
w: |* rit. * * * * * dim. * * * *|
 E,/G/B/e/G/B/ Ee'3/2 x/ | %31
w: * * dolce * * * * *|
[K:D][M:4/4]"^Prelude 5 in D Major""^I" D/!2!A/!4!d/A/ !3!f/A/d/A/ !1!^D/A/B/A/ f/A/B/A/ | %32
w: |
 !1!E/G/B/G/ !3!g/G/B/G/ A,/"^b_II"!1!A/!1!c/A/ !2!g/A/c/A/ | %33
w: |
"^II" A,/!1!A/!3!c/A/ e/A/c/A/ D/A/!3!d/A/ !2!f/A/d/A/ | %34
w: |
"^I" D/!2!A/!1!=c/A/ !3!f/A/^B/A/"^II" G,/G/B/G/ !3!g/G/B/G/ | %35
w: |
"^I" E,/!1!^G/!4!d/G/ e/G/d/G/ !2!E/G/d/G/ e/G/d/G/ | %36
w: |
"^II" A,/!1!A/!2!c/A/ e/A/c/A/ A,/"^b_II"!1!A/!1!c/A/ !2!g/A/c/A/ | %37
w: |
"^b_II" D/!1!A/!2!d/A/ !1!f/A/d/A/ !3!F/A/d/A/ f/A/d/A/ | D/A/d/A/ f/A/d/A/ D2 z2 | %39
w: * * * * dim. * rit. * * * * * * * * *||
[M:3/4]"^Prelude 6 in B Minor""^B_II"[Q:1/4=72] (3B,!3!F!4!B (3!2!dBF (3fdB | (3B,FB (3dBF (3fdB | %41
w: ||
"^III" (3E,GB (3eBG (3geB | (3E,GB (3eBG (3geB |"^B_II" (3F,!3!F!2!^A (3cAF (3fcA | %44
w: |||
 (3F,F^A (3cAF (3fcA | (3B,!3!F!4!B (3!2!dBF (3fdB | (3B,FB (3dBF (3fdB | %47
w: |||
"^B_III" (3G,!3!G!2!B (3dBG (3fdB | (3G,G!2!B (3dBG (3gdB |"^I" (3E,!2!EG (3!1!=cGE (3!4!gcG | %50
w: |||
 (3E,EG (3=cGE (3gcG |"^B_II" (3F,!3!F!4!B (3!2!dBF (3fdB | (3F,!3!F!2!^A (3cAF (3fcA | %53
w: |||
 (3B,!3!F!4!B (3!2!dBd (3fdB | (3dBF B,2 z2 | %55
w: ||
[K:A][M:6/8]"^Prelude 7 in A Major"[Q:3/8=60]"^I" A,/!2!A/!3!c/A/c/A/ A,/A/c/A/e/A/ | %56
w: |
 D/!2!A/B/A/B/A/ D/A/B/A/!3!f/A/ | !1!^D/!2!A/B/A/B/A/ D/A/B/A/!3!f/A/ | %58
w: ||
 !2!E/!1!G/B/G/B/G/ E/G/B/G/e/G/ |"^b_II" A,/A/c/A/c/A/ A,/A/c/A/!2!=g/A/ | %60
w: ||
"^b:II" D/A/d/A/f/A/"^b_I" ^D/A/=c/A/f/A/ |"^II" !1!E/!2!A/!3!^c/A/e/A/"^I" E,/!2!G/B/G/e/G/ | %62
w: ||
 A/A/!3!c/c/e/e/ !1!!4![ca]2 z | %63
w: |
[M:3/4]"^Prelude 8 in F♯ Minor""^b_II" !3!F/A/c/A/ f/A/c/A/ F/A/c/f/ | %64
w: |
 D/A/!2!d/A/ f/A/d/A/ D/A/d/f/ |"^II" B,/!3!B/!2!d/B/ !4!g/B/d/B/ B,/B/d/g/ | %66
w: ||
"^b_IV" C/!3!G/B/G/ !4!^e/G/B/G/ C/G/B/e/ |"^b:II" !3!F/A/c/A/ f/A/c/A/ F/A/c/f/ | %68
w: ||
"^I" D/!2!A/!1!^B/A/ !3!f/A/B/A/ D/A/B/f/ |"^b_IV" C/!3!G/=B/G/ !4!f/G/B/G/ C/G/B/f/ | %70
w: ||
 C/!3!G/B/G/ !4!^e/G/B/G/ C/G/B/e/ |"^b_II" !3!F/A/c/A/ f/A/c/A/ C/A/c/f/ | %72
w: ||
 A,/A/c/f/ !3!C/A/c/f/ A,/A/c/f/ | z2 [Acf]4 | %74
w: ||
[K:E][M:4/4]"^Prelude 9 in E Major""^b:IV" E,/B/!2!e/B/ g/B/e/B/ E,/B/e/B/ g/B/e/B/ | %75
w: |
"^B_IV" C/!3!c/!2!e/c/ g/c/e/c/ C/c/e/c/ g/c/e/c/ | %76
w: |
"^IV" !1!F/!3!c/!4!f/c/ !2!a/c/f/c/ F/c/f/c/ a/c/f/c/ | %77
w: |
"^b_IV" F/B/d/B/ !2!a/B/d/B/"^B_II" B,/!3!B/!4!d/B/ f/B/d/B/ | %78
w: |
"^b_IV" E,/B/!2!e/B/ g/B/e/B/ E,/B/e/B/ g/B/e/B/ | %79
w: |
"^b_II" A,/A/c/A/ f/A/c/A/"^I" ^A,/=G/!3!c/G/ e/G/c/G/ | %80
w: |
"^(I)" B,/!1!^G/B/G/ e/G/B/G/"^b_II" B,/!3!F/A/F/ !4!d/F/A/F/ | %81
w: |
"^I" E,/!2!B,/!3!E/!1!G/ !0!B/e/"^IV"!1!g/!4!b/ !3!!0![Ge]4 | %82
w: |
[M:12/8]"^Prelude 10 in C♯ Minor"[Q:3/8=120]"^IV" !1!C!3!G!4!c!2!ecG CGcecG | %83
w: |
"^b_I" DG^BfBG DGBfBG |"^III" !1!^E!3!B!2!=d!4!gcB EBcgcB |"^b_II" !3!FAc!4!acA FAcacA | %86
w: |||
"^b_IV" F!2!^BdgdB FBdgdB |"^I" !2!E!1!G!3!c!4!gcG EGcgcG |"^(I)" !1!D!2!A!3!c!4!fcA DAcfcA | %89
w: |||
"^IV" !1!G,!3!G!4!c!2!ecG"^B_II" F,!3!FA!4!dAF |"^I" E,!2!E!1!G!3!cGE"^b_I" G,DG^BGD | %91
w: ||
"^I" !4!C!2!E!1!G"^VI"!1!c"^b_IX"!4!e!4!g{/g} !4!c'4 z2 | %92
w: |
[K:F][M:6/8]"^Prelude 11 in F Major"[Q:1/4=60]"^b_I" !3!F/!2!A/c/f/c/A/ F/A/c/f/c/A/ | %93
w: |
"^I" !3!C/G/!1!c/e/c/G/ C/G/c/e/c/G/ | E/!3!B/!1!c/!4!g/c/B/ E/B/c/g/c/B/ | %95
w: ||
"^b_I" !3!F/!2!A/c/f/c/A/ F/A/c/f/c/A/ |"^b_II" E/A/^c/!2!g/c/A/ A,/A/c/g/c/A/ | %97
w: ||
"^I" D/!2!A/!4!d/!1!f/d/A/ B,/"^b_III"!4!B/!4!d/!4!g/d/B/ | %98
w: |
"^b_I" C/!2!A/c/f/c/A/"^I" C/!4!B/!1!c/e/c/B/ |"^b_I" !3!F/!2!A/c/f/c/A/ F2 z | %100
w: ||
[M:4/4]"^Prelude 12 in D Minor""^I" D/!2!A/!4!d/A/ !1!f/A/d/A/ D/!3!B/!2!^c/B/ !4!g/B/c/B/ | %101
w: |
 D/!2!A/!4!d/A/ !1!f/A/d/A/ D/!4!d/!3!F/d/ D/d/C/d/ | %102
w: |
"^(I)" !2!=B,/!1!^G/!4!d/G/ e/G/d/G/ E,/G/d/G/ e/G/d/G/ | %103
w: |
 A,/!2!A/!3!^c/A/ e/A/c/A/ A,/!2!A/!1!=B,/A/ !4!^C/A/A,/A/ | %104
w: |
"^(I)" D/!2!A/!4!d/A/ !1!f/A/d/A/ D/!3!B/!2!^c/B/ !4!g/B/c/B/ | %105
w: |
 D/A/d/A/ f/A/d/A/ D/!4!d/!3!F/d/ !2!E/d/D/d/ | %106
w: |
"^(I)" !3!C/!4!B/!1!c/B/ e/B/c/B/ !2!E/!3!B/!1!c/B/ !4!g/B/c/B/ | %107
w: |
"^B_I" !3!F/!2!A/c/A/ f/A/c/A/ F,/A/c/A/ f/A/c/A/ | %108
w: |
"^b_II" E,/A/^c/A/ !3!g/A/c/A/"^I" A,/!2!A/=B,/A/ ^C/A/A,/A/ | %109
w: |
 D/!2!A/!4!d/A/ !1!f/A/d/A/"^B_I" B,/^G/!4!d/G/ f/G/d/G/ | %110
w: |
"^I" A,/!2!A/!4!d/A/ !1!f/A/d/A/ A,/!2!A/!3!^c/A/ e/A/c/A/ | %111
w: |
 D/!2!A/!4!d/!1!f/"^V" D/!3!d/!2!f/!1!a/"^b_X" [fad']2 z2 | %112
w: |
[K:Bb][M:12/8]"^Prelude 13 in B♭ Major"[Q:1/4=120]"^I" B,!2!F!3!B!4!dBF DBd!1!fdB | %113
w: |
"^b_III" C!3!GB!4!=eBG CGB_fBG |"^I" F,!3!F!2!A!4!_eAF F,FAeAF |"^II" !1!^G,DA!4!dAD F,DAdAD | %116
w: |||
"^B_III" G,!3!D!4!GBGD"^b_III" !2!GBd!4!bdB |"^I" !1!EG!2!c!4!gcG"^II" =EG!2!_dgdG | %118
w: ||
"^I" !2!F!3!B!4!=d!1!fdB"^III" !1!F!3!c!2!e!4!aec |"^B_VI" B,!3!F!4!Bdfb B,2 z z2 z | %120
w: ||
[M:12/8]"^Prelude 14 in G Minor"[Q:1/4=90]"^b_III" !3!GBdgdB GBd !0!DBd | %121
w: |
"^III" !2!^F!3!c!1!d!4!adc Fcd !0!Dcd |"^b_III" !3!GBdgdB"^III" C!3!c!2!e!4!aec | %123
w: ||
"^b_III" !2!^CB!4!=egeB"^b_II" DA!2!d^fdA |"^I" D!1!_A=B!2!fBA"^III" C!3!G!4!c!2!ecG | %125
w: ||
"^II" A,!4!c!2!d!1!^fdc"^I" B,!2!B!3!d!4!gdB | %126
w: |
"^III" C!3!c!2!!4![ea]"^b_III" !0!DB[dg]"^I" !0!D!2!A!1!!3![c^f] DA[cf] | %127
w: |
"^b:III" !3!GBdgdB G,2 z z2 z | %128
w: |
[K:Eb][M:4/4]"^Prelude 15 in E♭ Major"[Q:1/4=60]"^III" !4!E/!3!G/!1!B/G/ !2!e[GBe] G/B/e/B/ !4!b[Beb] | %129
w: |
"^(III)" !1!F/!3!c/!2!e/c/ !4!=a[cea]"^I" B,/!2!B/!3!d/B/ !4!_a[Bda] | %130
w: |
"^II" =B,/G/!3!d/D/ !4!g[Gdg]"^III" C/!3!G/!4!c/G/ !2!e[Gce] | %131
w: |
"^IV" A,/!3!A/!2!c/A/ !4!f[Acf]"^b_I" B,/!3!F/A/F/ !4!d[FAd] | %132
w: |
"^III" !4!E/!3!G/B/G/ !2!e/G/B/G/ E/G/B/e/"^b_III" E/B/e/g/ | %133
w: |
"^III" !1!F/!2!B/!3!d/B/ !4!a/B/d/B/"^I" B,/B/d/B/ a/B/d/B/ | %134
w: |
"^b_III" !4!E/B/!2!e/B/ g/B/e/B/ E/!3!G/B/e/ E/B/e/g/ | [GBe]4 z4 | %136
w: ||
[M:3/4]"^Prelude 16 in C Minor"[Q:1/4=60]"^III" C/!2!e/!4!c/!3!G/ C/G/c/e/ C/e/c/G/ | %137
w: |
"^b_I" C/f/!4!d/A/ C/A/d/f/ C/f/d/A/ |"^I" =B,/!1!f/!4!d/G/ B,/G/d/f/ G,/f/=B/G/ | %139
w: ||
"^III" C/!2!e/!4!c/!3!G/ C/G/c/e/ C/e/c/G/ |"^b:III" !4!E/g/!2!e/B/ E/B/e/g/ E/g/e/B/ | %141
w: ||
"^B_I" F,/f/!4!d/A/ !3!F/A/d/f/ F/f/d/A/ |"^IV" !1!^F/!4!=a/!2!e/!3!c/ F/c/e/a/ F/a/e/c/ | %143
w: ||
"^III" !3!G/!1!g/!2!e/!4!c/ G/c/e/g/ G,/!3!G/!2!=B/!4!f/ | %144
w: |
"^III" !1!C/!2!e/!4!c/!3!G/ C/c/e/g/"^B_III" C/e/c/G/ | [Ec]4 z2 |] %146
w: ||
V:2
 D4 E4 | A,4 C4 | D4 F4 | G,4 B,4 | C4 A,4 | D4 F4 | G,4 G,4 | C4 z4 |[M:4/4] A,3 A, F3 F | %9
 D3 D E3 E | A,4 G,4 | C4 B,4 | A,2 F2 D2 E2 | A,4 E,4 | A,4 E,4 | A,4 A,2 z2 | %16
[K:G][M:4/4] G,2 G2 E2 G2 | C2 G2 A,2 A2 | D2 A2 ^D2 A2 | E2 G2 C2 A2 | D2 G2 D2 A2 | %21
 G,2 B,2 D2 B,2 | G,4 z4 |[M:6/8] E,3 E,3 | E,3 E,3 | E,3 E,3 | E,3 E3 | D3 D3 | C3 A,3 | B,3 B,3 | %30
 E,3 E3 |[K:D][M:4/4] D4 ^D4 | E4 A,4 | A,4 D4 | D4 !2!G,4 | E,4 E4 | A,4 A,4 | D4 F4 | D4 D2 z2 | %39
[M:3/4] B,4 x2 | B,4 x2 | E,4 x2 | E,4 x2 | F,4 x2 | F,4 x2 | B,4 x2 | B,4 x2 | G,4 x2 | G,4 x2 | %49
 E,4 x2 | E,4 x2 | F,4 x2 | F,4 x2 | B,6- | B,2 B,2 z2 |[K:A][M:6/8] A,3 A,3 | D3 D3 | ^D3 D3 | %58
 E3 E3 | A,3 A,3 | D3 ^D3 | E3 E,3 | A,3 A,2 z |[M:3/4] F4 F2 | D4 D2 | !1!B,4 B,2 | C4 C2 | %67
 F4 F2 | D4 D2 | C4 C2 | C4 C2 | F4 !3!C2 | !0!A,2 C2 !0!A,2 | !2!F,6 |[K:E][M:4/4] E,4 E,4 | %75
 C4 C4 | F4 F4 | F4 B,4 | E,4 E,4 | A,4 !1!^A,4 | !2!B,4 B,4 | E,4 E,4 |[M:12/8] C6 C6 | D6 D6 | %84
 ^E6 E6 | F6 F6 | F6 F6 | E6 E6 | D6 D6 | G,6 F,6 | E,6 !4!G,6 | x12 |[K:F][M:6/8] F3 F3 | C3 C3 | %94
 !2!E3 E3 | F3 F3 | E3 A,3 | D3 !1!B,3 | !3!C3 !3!C3 | F3 F2 z |[M:4/4] D4 D4 | D4 DFD!3!C | %102
 =B,4 E,4 | A,4 A,=B,^CA, | D4 D4 | D4 DFED | C4 E4 | F4 F,4 | E,4 A,!1!=B,!4!^CA, | D4 B,4 | %110
 A,4 A,4 | D2 D2 D2 z2 |[K:Bb][M:12/8] B,6 D6 | C6 C6 | !1!F,6 F,6 | ^G,6 F,6 | G,6 G6 | %117
 E6 !1!=E6 | F6 F6 | B,6 B,2 z z2 z |[M:12/8] G6 G3 D3 | ^F6 F3 D3 | G6 !1!C6 | ^C6 !0!D6 | %124
 D6 !1!C6 | !0!A,6 !1!B,6 | !1!C3 D3 D3 D3 | G6 !2!G,2 z z2 z |[K:Eb][M:4/4] E4 G4 | F4 !1!B,4 | %130
 !1!=B,4 !1!C4 | !1!A,4 B,4 | E4 E2 E2 | F4 !1!B,4 | E4 E2 E2 | E4 z4 |[M:3/4] !1!C2 C2 C2 | %137
 !3!C2 C2 C2 | !2!=B,2 B,2 G,2 | !1!C2 C2 C2 | E2 E2 E2 | F,2 F2 F2 | ^F2 F2 F2 | G2 G2 !1!G,2 | %144
 C2 C2 C2 | !3!C4 z2 |] %146

